SeaMapSymbols/rapid_4.svg

<?xml version="1.0" encoding="UTF-8" standalone="no"?>
<!-- Created with Inkscape (http://www.inkscape.org/) -->

<svg
   xmlns:dc="http://purl.org/dc/elements/1.1/"
   xmlns:cc="http://creativecommons.org/ns#"
   xmlns:rdf="http://www.w3.org/1999/02/22-rdf-syntax-ns#"
   xmlns:svg="http://www.w3.org/2000/svg"
   xmlns="http://www.w3.org/2000/svg"
   xmlns:xlink="http://www.w3.org/1999/xlink"
   xmlns:sodipodi="http://sodipodi.sourceforge.net/DTD/sodipodi-0.dtd"
   xmlns:inkscape="http://www.inkscape.org/namespaces/inkscape"
   width="120"
   height="120"
   id="svg2"
   version="1.1"
   inkscape:version="0.48.2 r9819"
   sodipodi:docname="rapid_4.svg"
   style="display:inline"
   inkscape:export-filename="/Users/mherring/boatsw/oseam/openseamap/josm/icons/WindSurfing16.png"
   inkscape:export-xdpi="12"
   inkscape:export-ydpi="12">
  <defs
     id="defs4">
    <clipPath
       id="clipPath88098"
       clipPathUnits="userSpaceOnUse">
      <rect
         ry="20"
         rx="20"
         y="20"
         x="20"
         height="80"
         width="80"
         id="rect88100"
         style="fill:none;stroke:none" />
    </clipPath>
    <linearGradient
       y2="51.75312"
       x2="40.742748"
       y1="44.550709"
       x1="-24.359478"
       gradientTransform="translate(31.999999,1.4360761e-7)"
       gradientUnits="userSpaceOnUse"
       id="linearGradient88083"
       xlink:href="#linearGradient6960-8"
       inkscape:collect="always" />
    <linearGradient
       y2="69.834694"
       x2="4.4642854"
       y1="73.227554"
       x1="70.178581"
       gradientTransform="translate(-2,0)"
       gradientUnits="userSpaceOnUse"
       id="linearGradient88081"
       xlink:href="#linearGradient6968-6"
       inkscape:collect="always" />
    <linearGradient
       y2="53.015812"
       x2="48.57143"
       y1="51.214668"
       x1="6.9552503"
       gradientTransform="translate(32,0)"
       gradientUnits="userSpaceOnUse"
       id="linearGradient88079"
       xlink:href="#linearGradient6960-8"
       inkscape:collect="always" />
    <linearGradient
       y2="78.669807"
       x2="49.272728"
       y1="1.7416568"
       x1="38.536026"
       gradientUnits="userSpaceOnUse"
       id="linearGradient88077"
       xlink:href="#linearGradient6898-42"
       inkscape:collect="always" />
    <linearGradient
       inkscape:collect="always"
       id="linearGradient6968-6">
      <stop
         style="stop-color:#00213e;stop-opacity:1"
         offset="0"
         id="stop6970-5" />
      <stop
         style="stop-color:#0090be;stop-opacity:1"
         offset="1"
         id="stop6972-8" />
    </linearGradient>
    <linearGradient
       inkscape:collect="always"
       id="linearGradient6960-8">
      <stop
         style="stop-color:#0080c0;stop-opacity:1;"
         offset="0"
         id="stop6962-2" />
      <stop
         style="stop-color:#00213e;stop-opacity:1"
         offset="1"
         id="stop6964-5" />
    </linearGradient>
    <linearGradient
       inkscape:collect="always"
       id="linearGradient6898-42">
      <stop
         style="stop-color:#40c0ff;stop-opacity:1"
         offset="0"
         id="stop6900-01" />
      <stop
         style="stop-color:#ffffff;stop-opacity:1"
         offset="1"
         id="stop6902-3" />
    </linearGradient>
    <filter
       inkscape:collect="always"
       id="filter6987-34"
       x="-0.11609452"
       width="1.2321891"
       y="-0.41914788"
       height="1.8382957">
      <feGaussianBlur
         inkscape:collect="always"
         stdDeviation="3.6772358"
         id="feGaussianBlur6989-3" />
    </filter>
  </defs>
  <sodipodi:namedview
     id="base"
     pagecolor="#ffffff"
     bordercolor="#666666"
     borderopacity="1.0"
     inkscape:pageopacity="0.0"
     inkscape:pageshadow="2"
     inkscape:zoom="2.8"
     inkscape:cx="61.916708"
     inkscape:cy="58.721337"
     inkscape:document-units="px"
     inkscape:current-layer="layer5"
     showgrid="true"
     inkscape:window-width="1920"
     inkscape:window-height="1088"
     inkscape:window-x="0"
     inkscape:window-y="0"
     inkscape:window-maximized="1"
     inkscape:snap-global="false">
    <inkscape:grid
       type="xygrid"
       id="grid3004"
       empspacing="5"
       visible="true"
       enabled="true"
       snapvisiblegridlinesonly="true" />
  </sodipodi:namedview>
  <metadata
     id="metadata7">
    <rdf:RDF>
      <cc:Work
         rdf:about="">
        <dc:format>image/svg+xml</dc:format>
        <dc:type
           rdf:resource="http://purl.org/dc/dcmitype/StillImage" />
        <dc:title />
      </cc:Work>
    </rdf:RDF>
  </metadata>
  <g
     inkscape:groupmode="layer"
     id="layer5"
     inkscape:label="Whitewater Rapid"
     style="display:inline">
    <g
       style="display:inline"
       id="g246073">
      <g
         style="display:inline"
         inkscape:label="Whitewater Rapid"
         id="layer5-2">
        <g
           clip-path="url(#clipPath88098)"
           id="g88085">
          <g
             id="g88068"
             transform="translate(166.07143,10)">
            <g
               transform="translate(-145.50734,10.359031)"
               style="display:inline"
               inkscape:label="BackGr"
               id="layer4-8">
              <rect
                 ry="18.560369"
                 rx="21.095205"
                 y="2.2416568"
                 x="2.0717416"
                 height="75.928154"
                 width="75.473404"
                 id="rect6895-3"
                 style="fill:url(#linearGradient88077);fill-opacity:1;fill-rule:evenodd;stroke:none;stroke-width:1;marker:none;visibility:visible;display:inline;overflow:visible;enable-background:accumulate" />
              <path
                 sodipodi:nodetypes="ccccccccc"
                 id="rect6906-1"
                 d="m 16.996063,2.8308038 36.99913,2.6482146 c 11.686743,0 13.200822,3.9669243 16.403383,6.4466326 l 5.637431,7.372575 c 0,2.205409 -18.080826,2.70042 -29.09666,1.144856 L 21.58656,22.01843 C 8.8425892,23.899356 -0.16431579,21.6206 -0.29651929,18.866192 L 3.5464729,9.6172362 C 5.1934696,7.0152163 5.3093198,2.8308038 16.996063,2.8308038 z"
                 style="fill:#f6fcff;fill-opacity:1;fill-rule:evenodd;stroke:none;stroke-width:1;marker:none;visibility:visible;display:inline;overflow:visible;filter:url(#filter6987-34);enable-background:accumulate"
                 transform="matrix(1.1723042,-0.1433347,0.1004078,1.6734954,-5.0901022,-7.7929581)"
                 inkscape:connector-curvature="0" />
            </g>
            <g
               transform="translate(-145.50734,10.359031)"
               style="display:inline"
               inkscape:label="Water"
               id="layer2-68">
              <path
                 sodipodi:nodetypes="ccssccc"
                 id="path6958-77"
                 d="m 69.761547,39.642857 c -6.400112,-0.975302 -15.883395,1.463146 -20.970793,5.714286 -4.477105,3.741166 -4.012729,4.177798 -8.824095,12.079404 -2.299811,3.776932 -5.842256,8.86994 -9.966192,8.824876 C 18.13738,66.134055 26.148309,72.50854 35.552862,72.40831 53.017025,75.872235 68.680008,73.324661 72.778641,67.0562 58.548844,63.314214 59.237542,52.59044 69.761547,39.642857 z"
                 style="fill:url(#linearGradient88079);fill-opacity:1;fill-rule:evenodd;stroke:none"
                 inkscape:connector-curvature="0" />
              <path
                 sodipodi:nodetypes="cccccccc"
                 id="rect6955-21"
                 d="m 4.2737765,65.178574 c 22.9237805,1.900509 63.0490585,4.191505 71.9167515,0.648198 l -4.61908,6.620936 c -2.5,2.328623 -18.485604,6.838025 -8.416634,4.695168 l -46.381038,0.357143 c -1.002458,0 -9.1233261,-5.402259 -11.9804689,-7.195168 L 2.4642854,66.480886 c 0,-0.721481 0.807033,-1.302312 1.8094911,-1.302312 z"
                 style="fill:url(#linearGradient88081);fill-opacity:1;fill-rule:evenodd;stroke:none;stroke-width:1;marker:none;visibility:visible;display:inline;overflow:visible;enable-background:accumulate"
                 inkscape:connector-curvature="0" />
              <path
                 style="fill:url(#linearGradient88083);fill-opacity:1;fill-rule:evenodd;stroke:none"
                 d="M 53.211559,13.377179 C 42.693188,11.655512 27.107726,15.960022 18.746755,23.464414 11.388779,30.068567 9.8998453,29.784331 4.2446456,44.787773 0.97005809,53.475368 1.8183372,55.111933 3.2703652,61.123639 5.009569,68.324314 6.030842,68.868468 9.1125467,73.489758 37.814321,79.604507 62.545765,79.147972 69.281734,68.082471 37.056697,59.456567 29.602252,35.72803 53.211559,13.377179 z"
                 id="path55062"
                 sodipodi:nodetypes="ccssccc"
                 inkscape:connector-curvature="0" />
            </g>
          </g>
          <rect
             ry="20"
             rx="20"
             y="22"
             x="22"
             height="76"
             width="76"
             id="rect7024-2"
             style="fill:none;stroke:#00213e;stroke-width:3.99999976;stroke-miterlimit:4;stroke-opacity:1;stroke-dasharray:none;display:inline"
             mask="none" />
        </g>
      </g>
    </g>
    <rect
       ry="20"
       rx="20"
       y="22"
       x="22"
       height="76"
       width="76"
       id="rect7024"
       style="fill:none;stroke:#ff0000;stroke-width:10;stroke-miterlimit:4;stroke-opacity:1;stroke-dasharray:none;display:inline"
       mask="none" />
  </g>
</svg>

<?xml version="1.0" encoding="UTF-8" standalone="no"?>
<!-- Created with Inkscape (http://www.inkscape.org/) -->
<svg id="svg2" xmlns:rdf="http://www.w3.org/1999/02/22-rdf-syntax-ns#" xmlns="http://www.w3.org/2000/svg" height="120" width="120" version="1.1" xmlns:cc="http://creativecommons.org/ns#" xmlns:xlink="http://www.w3.org/1999/xlink" xmlns:dc="http://purl.org/dc/elements/1.1/">
 <defs id="defs4">
  <clipPath id="clipPath88098" clipPathUnits="userSpaceOnUse">
   <rect id="rect88100" rx="20" ry="20" height="80" width="80" y="20" x="20" fill="none"/>
  </clipPath>
  <linearGradient id="linearGradient88083" y2="51.753" xlink:href="#linearGradient6960-8" gradientUnits="userSpaceOnUse" y1="44.551" gradientTransform="translate(32 1.4361e-7)" x2="40.743" x1="-24.359"/>
  <linearGradient id="linearGradient88081" y2="69.835" gradientUnits="userSpaceOnUse" y1="73.228" gradientTransform="translate(-2)" x2="4.4643" x1="70.179">
   <stop id="stop6970-5" stop-color="#00213e" offset="0"/>
   <stop id="stop6972-8" stop-color="#0090be" offset="1"/>
  </linearGradient>
  <linearGradient id="linearGradient88079" y2="53.016" xlink:href="#linearGradient6960-8" gradientUnits="userSpaceOnUse" y1="51.215" gradientTransform="translate(32)" x2="48.571" x1="6.9553"/>
  <linearGradient id="linearGradient88077" y2="78.67" gradientUnits="userSpaceOnUse" y1="1.7417" x2="49.273" x1="38.536">
   <stop id="stop6900-01" stop-color="#40c0ff" offset="0"/>
   <stop id="stop6902-3" stop-color="#fff" offset="1"/>
  </linearGradient>
  <linearGradient id="linearGradient6960-8">
   <stop id="stop6962-2" stop-color="#0080c0" offset="0"/>
   <stop id="stop6964-5" stop-color="#00213e" offset="1"/>
  </linearGradient>
  <filter id="filter6987-34" height="1.8383" width="1.2322" y="-.41915" x="-.11609">
   <feGaussianBlur id="feGaussianBlur6989-3" stdDeviation="3.6772358"/>
  </filter>
 </defs>
 <metadata id="metadata7">
  <rdf:RDF>
   <cc:Work rdf:about="">
    <dc:format>image/svg+xml</dc:format>
    <dc:type rdf:resource="http://purl.org/dc/dcmitype/StillImage"/>
    <dc:title/>
   </cc:Work>
  </rdf:RDF>
 </metadata>
 <g id="layer5">
  <g id="g246073">
   <g id="layer5-2">
    <g id="g88085" clip-path="url(#clipPath88098)">
     <g id="g88068" fill-rule="evenodd" transform="translate(166.07 10)">
      <g id="layer4-8" transform="translate(-145.51 10.359)">
       <rect id="rect6895-3" rx="21.095" ry="18.56" height="75.928" width="75.473" y="2.2417" x="2.0717" fill="url(#linearGradient88077)"/>
       <path id="rect6906-1" d="m16.996 2.8308 36.999 2.6482c11.687 0 13.201 3.9669 16.403 6.4466l5.6374 7.3726c0 2.2054-18.081 2.7004-29.097 1.1449l-25.351 1.574c-12.744 1.881-21.751-0.397-21.884-3.152l3.8435-9.2488c1.647-2.602 1.7628-6.7864 13.45-6.7864z" transform="matrix(1.1723 -.14333 .10041 1.6735 -5.0901 -7.793)" filter="url(#filter6987-34)" fill="#f6fcff"/>
      </g>
      <g id="layer2-68" transform="translate(-145.51 10.359)">
       <path id="path6958-77" d="m69.762 39.643c-6.4001-0.9753-15.883 1.4631-20.971 5.7143-4.4771 3.7412-4.0127 4.1778-8.8241 12.079-2.2998 3.7769-5.8423 8.8699-9.9662 8.8249-11.864-0.127-3.853 6.248 5.552 6.147 17.464 3.464 33.127 0.917 37.226-5.352-14.23-3.742-13.541-14.466-3.017-27.413z" fill="url(#linearGradient88079)"/>
       <path id="rect6955-21" d="m4.2738 65.179c22.924 1.9005 63.049 4.1915 71.917 0.6482l-4.6191 6.6209c-2.5 2.3286-18.486 6.838-8.4166 4.6952l-46.381 0.35714c-1.0025 0-9.1233-5.4023-11.98-7.1952l-2.3297-3.824c0-0.72148 0.80703-1.3023 1.8095-1.3023z" fill="url(#linearGradient88081)"/>
       <path id="path55062" d="m53.212 13.377c-10.519-1.721-26.104 2.583-34.465 10.087-7.358 6.605-8.8472 6.32-14.502 21.324-3.2749 8.687-2.4267 10.324-0.9746 16.336 1.7392 7.2 2.7604 7.744 5.8421 12.366 28.702 6.115 53.434 5.658 60.17-5.408-32.225-8.625-39.68-32.354-16.07-54.705z" fill="url(#linearGradient88083)"/>
      </g>
     </g>
     <rect id="rect7024-2" rx="20" ry="20" height="76" width="76" stroke="#00213e" y="22" x="22" stroke-width="4" fill="none"/>
    </g>
   </g>
  </g>
  <rect id="rect7024" rx="20" ry="20" height="76" width="76" stroke="#f00" y="22" x="22" stroke-width="10" fill="none"/>
 </g>
</svg>
